X:1
T:[ID 3-7b]
T:[ID 3-7b]
T:Bezeichnung standardisiert: March March Violino Primo In dieser Quelle auch als: Marsch
T:Urheber unbekannt Erstbeleg: 1767 (Datum in der schriftlichen Quelle) Datum in der hier transkribierten schriftlichen Quelle: 1799
C:Urheber unbekannt
C:Erstbeleg: 1767 (Datum in der schriftlichen Quelle)
C:Datum in der hier transkribierten schriftlichen Quelle: 1799
%%score 1 2
L:1/8
M:4/4
K:C
V:1 treble nm="Violino Primo"
V:2 treble nm="Violino Secondo"
V:1
 c2 CCEEGG | cedB c2 e2 | dcBA Ggfe | d2 d>d d4 :: G2 z g (gf)(fe) | G2 z f (fe)(ed) | cagf e2 dB | %7
 c2 c>c c4 :| %8
V:2
 !fermata!E2 EECCEE | EGFD E2 c2 | BAG^F GFGA | B2 BB B4 :: G2 z e (ed)(dc) | G2 z d (dc)(cB) | %6
 Afed c2 GF | E2 EE E4 :| %8

